X:1
T:Title
%%score { ( 1 4 ) | ( 2 3 ) }
L:1/8
M:3/4
K:A
V:1 treble nm="Grand Piano"
V:4 treble 
V:2 bass 
V:3 bass 
V:1
 z2 z2[Q:1/4=100] [CE]2 | [CE]3 [CA] [CG]>[CF] | [DG]2 [DG]2 [EA]2 | B3 B A>G |[M:2/4] [CA]4 | %5
[M:1/4] [Ec]2 |[M:3/4] c>B B2 c2 | [DB]>A [A,CA]2 [CEF]2 | [B,EG]3 [EB] [^DB]>D |[M:2/4] E4 | %10
[M:1/4] E2 |[M:3/4] E3 B cB | [DB]>[CA] [CA]2 [C=GA]2 | [FA]3 [FA] [Fd]>d |[M:2/4] c4 |[M:1/4] c2 | %16
[M:3/4] c3 [Ae] [Ad]>[Ac] | [FB]2 [DF]2 [DA]2 | A4 z2 |[M:2/4] [A,CA]4 |[M:1/4] E2 | %21
[M:3/4] [CE]4 [DF]2 | [CE]4 [CA]2 | [Ec]4 [Fd]2 | [Ec]4 [Ec]2 | [Ae]3 [Ac] [Ad]>[Ac] | %26
 [FB]2 [DF]2 [DA]2 | A4 z2 |[M:2/4] [CA]4 |] %29
V:2
 z2 z2 [A,,A,]2 | [A,,A,]3 [A,,E,] [A,,E,]>[A,,E,] | [B,,E,]2 [B,,E,]2 [C,A,]2 | %3
 [E,G,D]3 [E,G,D] [E,A,C]>[E,B,D] |[M:2/4] [A,,A,]4 |[M:1/4] [A,,A,]2 | %6
[M:3/4] [E,G,E]>[E,G,D] [E,G,D]2 [E,G,E]2 | [A,,A,]2 z2 z2 | B,,3 [B,,G,] [B,,F,]>[B,,A,B,] | %9
[M:2/4] [E,G,B,]4 |[M:1/4] [E,G,D]2 |[M:3/4] [E,G,D]3 [E,G,D] [E,G,E][E,G,D] | %12
 [A,,A,]>[A,,A,] [A,,A,]2 A,,2 | [D,D]3 [D,D] [D,A,]>[F,A,F] |[M:2/4] [A,E]4 |[M:1/4] [A,E]2 | %16
[M:3/4] [A,E]3 [=G,C] [F,D]>[E,A,] | [D,D]2 [D,B,]2 [B,,F,]2 | C2 F,2 [E,G,D]2 |[M:2/4] A,,4 | %20
[M:1/4] C2 |[M:3/4] z2 A,2 A,2 | z2 A,2 A,2 | z2 A,2 A,2 | z2 A,2 A,2 | %25
 [A,C]3 [=G,E] [F,D]>[E,A,] | [D,D]2 [D,B,]2 [B,,F,]2 | C2 F,2 [E,G,D]2 |[M:2/4] [A,,A,]4 |] %29
V:3
 x6 | x6 | x6 | x6 |[M:2/4] x4 |[M:1/4] x2 |[M:3/4] x6 | z z/ C/ A,,2 A,,2 | x6 |[M:2/4] x4 | %10
[M:1/4] x2 |[M:3/4] x6 | x6 | x6 |[M:2/4] x4 |[M:1/4] x2 |[M:3/4] x6 | x6 | E,4 z2 |[M:2/4] x4 | %20
[M:1/4] x2 |[M:3/4] A,,6 | A,,4 z2 | A,,6 | A,,4 z2 | x6 | x6 | E,4 z2 |[M:2/4] x4 |] %29
V:4
 x6 | x6 | x6 | x6 |[M:2/4] x4 |[M:1/4] x2 |[M:3/4] x6 | x6 | x6 |[M:2/4] x4 |[M:1/4] x2 | %11
[M:3/4] x6 | x6 | x6 |[M:2/4] x4 |[M:1/4] x2 |[M:3/4] x6 | x6 | z2 D2 B2 |[M:2/4] x4 |[M:1/4] x2 | %21
[M:3/4] x6 | x6 | x6 | x6 | x6 | x6 | z2 D2 B2 |[M:2/4] x4 |] %29

